alura/assets/api/cursos/ios-produzindo-design-system-swiftui.svg

<svg width="50" height="50" viewBox="0 0 50 50" fill="none" xmlns="http://www.w3.org/2000/svg">
<path d="M47.8 26.1999L47.3 22.1999L30.2 4.59993L25.8 2.79993C21.7 2.79993 8 15.6999 8 18.2999L3.7 22.2999L3.5 28.1999L17.7 42.6999L42.5 33.8999C43.1 33.5999 48.7 27.8999 47.9 26.2999L47.8 26.1999Z" fill="#46B8B0"/>
<path d="M29.8 45.5C27.4 47.9 23.5 47.9 21.1 45.5L4.8 29.3C2.4 26.9 2.4 23 4.8 20.6L21 4.39998C23.4 1.99998 27.3 1.99998 29.7 4.39998L45.9 20.6C48.3 23 48.3 26.9 45.9 29.3L38.5 36.7" stroke="#444444" stroke-width="2.5" stroke-linecap="round" stroke-linejoin="round"/>
<path d="M45.7998 29H17.1998C16.1998 29 15.2998 28.2 15.2998 27.1V10.4" stroke="#444444" stroke-width="0.5" stroke-miterlimit="10"/>
<path d="M13.5996 37.9V13.6V13.2V11.9C13.5996 10.5 14.6996 9.40002 16.0996 9.40002H29.9996C31.3996 9.40002 32.4996 10.5 32.4996 11.9V39.6C32.4996 41 31.3996 42.1 29.9996 42.1H18.5996" stroke="#444444" stroke-linecap="round" stroke-linejoin="round"/>
<path d="M19.4994 9.59998H26.7994C27.0994 9.59998 27.2994 9.79998 27.2994 10.1C27.2994 11.3 26.2994 12.3 25.0994 12.3H21.0994C19.8994 12.3 18.8994 11.3 18.8994 10.1C18.8994 9.79998 19.0994 9.59998 19.3994 9.59998H19.4994Z" stroke="#444444" stroke-width="0.5" stroke-miterlimit="10"/>
<path d="M22.6996 40.2C23.5833 40.2 24.2996 39.4837 24.2996 38.6C24.2996 37.7163 23.5833 37 22.6996 37C21.816 37 21.0996 37.7163 21.0996 38.6C21.0996 39.4837 21.816 40.2 22.6996 40.2Z" stroke="#444444" stroke-width="0.5" stroke-miterlimit="10"/>
<path d="M5.90039 18.6H39.7004C40.9004 18.6 41.9004 19.6 41.9004 20.8V32.1" stroke="#444444" stroke-width="0.5" stroke-miterlimit="10"/>
<path d="M22.7002 16.9V32" stroke="#444444" stroke-linecap="round" stroke-linejoin="round"/>
<path d="M20.0996 18.2999V29.4999" stroke="#444444" stroke-linecap="round" stroke-linejoin="round"/>
<path d="M17.5 20.2V28.7999" stroke="#444444" stroke-linecap="round" stroke-linejoin="round"/>
<path d="M25.2002 18.2999V29.4999" stroke="#444444" stroke-linecap="round" stroke-linejoin="round"/>
<path d="M27.7998 20.2V28.7999" stroke="#444444" stroke-linecap="round" stroke-linejoin="round"/>
<path d="M29.5996 22.1V26.8" stroke="#444444" stroke-linecap="round" stroke-linejoin="round"/>
<path d="M15.2998 22V26.8" stroke="#444444" stroke-linecap="round" stroke-linejoin="round"/>
<path d="M5.90039 19.2999L10.0004 23.3999C11.5004 24.8999 11.5004 27.2999 10.0004 28.6999L6.60039 32.0999" stroke="#444444" stroke-width="0.5" stroke-miterlimit="10"/>
</svg>

<svg xmlns="http://www.w3.org/2000/svg" viewBox="0 0 50 50"><path fill="#46b8b0" d="M47.8 26.2l-.5-4L30.2 4.6l-4.4-1.8C21.7 2.8 8 15.7 8 18.3l-4.3 4-.2 5.9 14.2 14.5 24.8-8.8c.6-.3 6.2-6 5.4-7.6z"/><path fill="none" stroke="#444" stroke-linecap="round" stroke-linejoin="round" stroke-width="2.5" d="M29.8 45.5c-2.4 2.4-6.3 2.4-8.7 0L4.8 29.3c-2.4-2.4-2.4-6.3 0-8.7L21 4.4c2.4-2.4 6.3-2.4 8.7 0l16.2 16.2c2.4 2.4 2.4 6.3 0 8.7l-7.4 7.4"/><path fill="none" stroke="#444" stroke-miterlimit="10" stroke-width=".5" d="M45.8 29H17.2c-1 0-1.9-.8-1.9-1.9V10.4"/><g fill="none" stroke="#444"><path stroke-linecap="round" stroke-linejoin="round" d="M13.6 37.9v-26c0-1.4 1.1-2.5 2.5-2.5H30c1.4 0 2.5 1.1 2.5 2.5v27.7c0 1.4-1.1 2.5-2.5 2.5H18.6"/><path stroke-miterlimit="10" stroke-width=".5" d="M19.5 9.6h7.3c.3 0 .5.2.5.5h0c0 1.2-1 2.2-2.2 2.2h-4c-1.2 0-2.2-1-2.2-2.2h0c0-.3.2-.5.5-.5z"/><circle cx="22.7" cy="38.6" r="1.6" stroke-miterlimit="10" stroke-width=".5"/></g><path fill="none" stroke="#444" stroke-miterlimit="10" stroke-width=".5" d="M5.9 18.6h33.8c1.2 0 2.2 1 2.2 2.2v11.3"/><path fill="#00dffc" stroke="#444" stroke-linecap="round" stroke-linejoin="round" d="M22.7 16.9V32m-2.6-13.7v11.2m-2.6-9.3v8.6m7.7-10.5v11.2m2.6-9.3v8.6m1.8-6.7v4.7M15.3 22v4.8"/><path fill="none" stroke="#444" stroke-miterlimit="10" stroke-width=".5" d="M5.9 19.3l4.1 4.1c1.5 1.5 1.5 3.9 0 5.3l-3.4 3.4"/></svg>
